X: 1
T: Francis Aucoin
M: 6/8
L: 1/8
R: jig
K: Dmaj
BAF AAA|BAF Ade|fed BdB|AFE EFA|
BAF AAA|BAF Ade|fed BdB|1 AFD DFA:|2 AFD D2 e||
fec BBB|BcB Bce|fec Bcd|cea ece|
fec BBB|BcB Bce|dcd f^ga|eaf ece:|
